img/envelope(hover).svg

<svg width="14" height="10" viewBox="0 0 14 10" fill="none" xmlns="http://www.w3.org/2000/svg">
<path d="M12.6875 0H1.31251C0.588747 0 0 0.560711 0 1.25001V8.74999C0 9.43929 0.588747 10 1.31251 10H12.6875C13.4113 10 14 9.43929 14 8.74999V1.25001C14 0.560711 13.4113 0 12.6875 0ZM12.6875 0.833329C12.7469 0.833329 12.8035 0.845074 12.8552 0.865586L7 5.69865L1.14479 0.865586C1.19649 0.845102 1.25304 0.833329 1.31248 0.833329H12.6875ZM12.6875 9.16664H1.31251C1.07112 9.16664 0.874996 8.97989 0.874996 8.74997V1.74601L6.71331 6.56493C6.79578 6.63287 6.89789 6.66666 7 6.66666C7.10211 6.66666 7.20422 6.6329 7.28669 6.56493L13.125 1.74601V8.74999C13.125 8.97989 12.9289 9.16664 12.6875 9.16664Z" fill="#757575"/>
</svg>

<svg width="14" height="10" fill="none" xmlns="http://www.w3.org/2000/svg"><path d="M12.688 0H1.313C.589 0 0 .56 0 1.25v7.5C0 9.44.589 10 1.313 10h11.375C13.41 10 14 9.44 14 8.75v-7.5C14 .56 13.411 0 12.687 0zm0 .833c.059 0 .115.012.167.033L7 5.699 1.145.866a.454.454 0 01.167-.033h11.375zm0 8.334H1.313a.428.428 0 01-.438-.417V1.746l5.838 4.819a.45.45 0 00.574 0l5.838-4.819V8.75c0 .23-.196.417-.438.417z" fill="#757575"/></svg>
